Origami/64x64/apps/anoise.svg

<svg width="64" height="64" version="1.1" viewBox="0 0 64 64" xmlns="http://www.w3.org/2000/svg">
 <circle cx="32" cy="33" r="28" style="opacity:.2"/>
 <circle cx="32" cy="32" r="28" style="fill:#ff8a18"/>
 <circle cx="32" cy="33" r="20" style="opacity:.2"/>
 <circle cx="32" cy="32" r="20" style="fill:#ffffff"/>
 <path d="M 32 4 A 28 28 0 0 0 4 32 A 28 28 0 0 0 4.0175781 32.492188 A 28 28 0 0 1 32 5 A 28 28 0 0 1 59.974609 32.492188 A 28 28 0 0 0 60 32 A 28 28 0 0 0 32 4 z" style="fill:#ffffff;opacity:.2"/>
 <g transform="matrix(2 0 0 2 -.44469083 .7735406)">
  <path transform="matrix(.5 0 0 .5 .22234541 -.3867703)" d="m27.443359 16.443359l-4.24414 4.242188 11.314453 11.314453-11.314453 11.314453 4.24414 4.242188 11.3125-11.314453 4.242188-4.242188-4.242188-4.242188-11.3125-11.314453z" style="fill:#3f3f3f"/>
 </g>
</svg>

<svg xmlns="http://www.w3.org/2000/svg" width="64" height="64" version="1.1" viewBox="0 0 64 64">
 <circle style="opacity:0.2" cx="32" cy="33" r="28"/>
 <circle style="fill:#ff8a18" cx="32" cy="32" r="28"/>
 <circle style="opacity:0.2" cx="32" cy="33" r="20"/>
 <circle style="fill:#ffffff" cx="32" cy="32" r="20"/>
 <path style="opacity:0.2;fill:#ffffff" d="M 32 4 A 28 28 0 0 0 4 32 A 28 28 0 0 0 4.0175781 32.492188 A 28 28 0 0 1 32 5 A 28 28 0 0 1 59.974609 32.492188 A 28 28 0 0 0 60 32 A 28 28 0 0 0 32 4 z"/>
 <g transform="matrix(2,0,0,2,-0.44469083,0.7735406)">
  <path style="fill:#3f3f3f" d="M 27.443359 16.443359 L 23.199219 20.685547 L 34.513672 32 L 23.199219 43.314453 L 27.443359 47.556641 L 38.755859 36.242188 L 42.998047 32 L 38.755859 27.757812 L 27.443359 16.443359 z" transform="matrix(0.5,0,0,0.5,0.22234541,-0.3867703)"/>
 </g>
</svg>
